outputs/icons/navigation/columns_round.svg

<svg xmlns="http://www.w3.org/2000/svg" width="1200" height="1200" fill="none"><g clip-path="url(#a)"><path fill="#000" d="M50 900c0 55.23 44.772 100 100 100h100c55.228 0 100-44.77 100-100V300c0-55.228-44.772-100-100-100H150c-55.228 0-100 44.772-100 100zm900-700c-55.23 0-100 44.772-100 100v600c0 55.23 44.77 100 100 100h100c55.23 0 100-44.77 100-100V300c0-55.228-44.77-100-100-100zM450 900c0 55.23 44.771 100 100 100h100c55.23 0 100-44.77 100-100V300c0-55.228-44.77-100-100-100H550c-55.229 0-100 44.772-100 100z"/></g><defs><clipPath id="a"><path fill="#fff" d="M0 0h1200v1200H0z"/></clipPath></defs></svg>

<svg width="1200" height="1200" viewBox="0 0 1200 1200" fill="none" xmlns="http://www.w3.org/2000/svg"><g clip-path="url(#clip0_652_1636)"><path d="M50 900C50 955.23 94.772 1000 150 1000H250C305.228 1000 350 955.23 350 900V300C350 244.772 305.228 200 250 200H150C94.772 200 50 244.772 50 300V900ZM950 200C894.77 200 850 244.772 850 300V900C850 955.23 894.77 1000 950 1000H1050C1105.23 1000 1150 955.23 1150 900V300C1150 244.772 1105.23 200 1050 200H950ZM450 900C450 955.23 494.771 1000 550 1000H650C705.23 1000 750 955.23 750 900V300C750 244.772 705.23 200 650 200H550C494.771 200 450 244.772 450 300V900Z" fill="black"/></g><defs><clipPath id="clip0_652_1636"><path width="24" fill="white" d="M0 0H1200V1200H0V0z"/></clipPath></defs></svg>
